trunk/public/assets/images/icons/red/file-word.svg

<svg width="16" height="16" xmlns="http://www.w3.org/2000/svg" viewBox="0 0 16 16" shape-rendering="geometricPrecision" fill="#cb1800"><path d="M10.055 14.302l2.54-2.338h-2.54"/><path d="M2.595 1.016v13.97h6.008v-4.47h4.802v-9.5H2.595zm9.44 8.027h-4.79v4.6H3.916V2.32h8.116v6.725z"/><g><path d="M9.71 7.916h-.8l-.906-2.982L7.1 7.916h-.8L4.987 3h1l.76 3.1.897-3.1h.718l.897 3.1.767-3.1h1L9.71 7.916z"/></g></svg>

<?xml version="1.0"?><!DOCTYPE svg PUBLIC "-//W3C//DTD SVG 1.1//EN" "http://www.w3.org/Graphics/SVG/1.1/DTD/svg11.dtd"><svg width="16px" height="16px" xmlns="http://www.w3.org/2000/svg" viewBox="0 0 16 16" shape-rendering="geometricPrecision" fill="#cb1800"><g><g><polygon points="10.055,14.302 12.595,11.964 10.055,11.964"/><path d="M2.595,1.016v13.969h6.008v-4.468h4.802V1.016H2.595z M12.034,9.043h-4.79v4.601H3.917V2.318h8.116V9.043z"/></g><g><path d="M9.709,7.916H8.909L8.004,4.934L7.1,7.916H6.299L4.988,3h1.001l0.759,3.101L7.645,3h0.718l0.897,3.101L10.027,3h1.001 L9.709,7.916z"/></g></g></svg>
